X: 128
T: W troskach głębokich ponurzony,
C: Mikołaj Gomółka
%%abc-version 2.0
%%abcx-abcm2ps-target-version 5.9.1 (29 Sep 2008)
%%abc-creator hum2abc beta
%%abcx-conversion-date 2021/10/04 07:59:10
%%abc-edited-by Marta Lawrence
%%abcx-initial-encoding-date 2020-02-21
%%humdrum-veritas 3772927155
%%humdrum-veritas-data 3957426120
%%linebreak <none>
%%barnumbers 0
L: 1/4
M: C|
N: Derived from pl-wn--sd-xvi-qu-273--130_gomolka-mikolaj--w-troskach-glebokich-ponurzony.krn
%%staves [1 2 3 4]
V: 1 clef=treble
V: 2 clef=alto
V: 3 clef=alto
V: 4
K: Bb
[V:1] A4F2G2 [|] 
[V:2] =E4F2D4 [|] 
[V:3] ^C4D2B,A, [|] 
[V:4] A,4D,2G,4 [|] 
[V:1] B2AGA2G3 [|] 
[V:2] D2D2D4 [|] 
[V:3] B,=CD2A,2B,3 [|] 
[V:4] ^F,=E,^F,2G,3 [|] 
[V:1] F=EDE4 [|] 
[V:2] B,2C3B, [|] 
[V:3] CD4C2 [|] 
[V:4] A,B,2A,2A,,2 [|] 
[V:1] D2A2A2A2 [|] 
[V:2] A,2F2=E2F3 [|] 
[V:3] D2D2C2D3 [|] 
[V:4] D,2D,2A,2D,2 [|] 
[V:1] d4^c2d=c [|] 
[V:2] GA2A4 [|] 
[V:3] =EF2E2FE [|] 
[V:4] D4A,2D,2 [|] 
[V:1] BAB2A2=e2 [|] 
[V:2] G2>F2=E2AG [|] 
[V:3] DCD2^C2=C2 [|] 
[V:4] G,2G,2A,2A,2 [|] 
[V:1] f2>=e2d^cd2 [|] 
[V:2] FGA4G2 [|] 
[V:3] D2>=E2F2ED [|] 
[V:4] D,2DCB,A,B,2 [|] 
[V:1] ^c2=e2d2d2 [|] 
[V:2] A2A2F2G2 [|] 
[V:3] =E2^C2D2D2 [|] 
[V:4] A,2A,2B,2B,2 [|] 
[V:1] ^c2d2d3=c [|] 
[V:2] A2A2G4 [|] 
[V:3] =E2D2D4 [|] 
[V:4] A,2D,2G,4 [|] 
[V:1] B2B2A2c2 [|] 
[V:2] G2>F2=E2A2 [|] 
[V:3] D2D2=C2F=E [|] 
[V:4] G,2G,2A,2=F,2 [|] 
[V:1] B4A32 |]  
[V:2] G2>F2=E32 |]  
[V:3] DCD2^C32 |]  
[V:4] G,2G,2A,32 |]  


